!!!OTL: 590. Jaegerlust.
!!!ARE: Europa, Mitteleuropa, Deutschland, Wetzlar, Schwalbach
!!!SCT: B0590
!!!TXL: @@DE
!!!YEM: Copyright 1995, estate of Helmut Schaffrath.
**kern	**text
*ICvox	*
*Ivox	*
*clefG2	*
*M6/8	*
*k[f#]	*
*G:	*
!LO:TX:a:t=Munter.	!
{8d	Es
=1	=1
4g	le-
8g	-be
4b	was
8b	auf
=2	=2
4.dd	Er-
4b}	-den
{8g	ſtolʒiert
=3	=3
4a	.
8a	in
8aL	grü-
8gJ	.
8a	-ner
=4	=4
4.b	Tracht,
4r}	.
{8d	die
=5	=5
4cc	Wäl-
8cc	-der
4a	und
8a	die
=6	=6
(4.dd	Fel-
8ee)	.
8dd}	-der,
{8cc	die
=7	=7
4b	Jä-
8b	-ger
8aL	und
8bJ	.
8a	die
=8	=8
4.g	Jagd!
4r}	.
{8d	Tra-
=9	=9
4B	-la,
8d	tra-
4g	-la,
8b	tra-
=10	=10
(4.dd	-la
8eeL)	.
8ddJ}	,
{8cc	die
=11	=11
4b	Jä-
8b	-ger
8aL	und
8bJ	.
8a	die
=12	=12
4.g	Jagd!
4r}	.
==	==
!!!AGN: Staende -, Jaeger - Lied
!!!GTL: Jägerlieder
!!!ONB: ESAC (Essen Associative Code) Database: BOEHME
!!!AMT: compound duple
!!!AIN: vox
!!!EED: Helmut Schaffrath
!!!EEV: 1.0
!!Schwalbach (Kreis Wetʒlar).
!!@@COMMENT:"Gedicht von Wilh. Müller 1822. Ʒuerſt in: Urania 1823. S. 377. Neue Ausg. ſeiner Gedichte. 
!!Leipʒig 1868. J. Th. 74. Melodie hier iſt Volksweiſe in den Rheinlanden und im
!!Naſſauiſchen. Eine andere Weiſe iſt die bekannte v. C. Kreutʒer 1623 für Männerſtimmen, mit
!!gekürʒtem und angebrachtem Refrain (ſ. Erk, Germ. 335). Vollſt. Text bei Erlach, Volksl. V, 367."
!!@@END:
!!!Text: W. Müller
!!!URL-scan: https://archive.org/details/BoehmeVtLieder1895/page/n469/mode/2up
!!!ENC: Anna Maria Matuszewska
!!!EEV: 2024/12/07
*-	*-
